-----BEGIN PGP PUBLIC KEY BLOCK-----

mQINBGmnI2kBEADJCYYBhIx7bdyXDDYmLMwZFQEK4ILa95j+6N9RfkZRR06AKMuS
HybM9iREuxCAS3cltes5dE6Q3Fq/cqHKdW1a4v5gUTxDVtolsIDthlzwSqTYruN3
0oX4Jxbhuky39Y+LD9b/uzY9t54ocLblA5vuuKOCoHfTpMjPmi4RChfUDy/+75WB
SW2fuHTWxNjZ21uRv2zyzLmscmEXPmxseXpSZ/y6CMnba/9HTAktiC2ceD7JNgVp
SWXI+xoJOvlbPubwKQ20W9EIFSleJumaHDrTxmjiHgsS5SCnwK9Tp/hbuoUKrLPR
S7Z7KkN0nUhMMAehX0hzyqnO1tnD84nMNuVggwHYfdbjN8Sae4ndOa/eRHwpSJi+
Ehms9XmOsaIGMxP4yE/f7uBqq67E9CL/5R1MwBjKfn8Vh0PZo2bPkVw0aancmk98
YiL3CrJ4vLze2T9g67CwagjQpaxuE+X6dvNjZ9HY1c5JeUbfZ9DIm9wQUoFkbk+y
AkRdbVYU02BctJqjpWVTsZGDb8xiqMAj1ODrgG3UrYS0NmEKLeErRW/ivwf0UT/q
hyVG0MrXVT41oPbvpo5HHXDXPLsusedduytr6RGcf8rh0xaKW7nRNAWMa+LYxY1G
REof13ZI6is7TlcNqzDhtaNJ/yHZWsmKTCGjIMZ9k+fb2YJrKDOzuSqFKwARAQAB
tDVPdG9icml4IExhYnMgU2VjdXJpdHkgQXVkaXRvciA8YXVkaXRvckBvdG9icml4
YWkuY29tPokCcwQTAQgAXRYhBPubEWvv3MjjPolgDw/VlJl4lkazBQJppyNpGxSA
AAAAAAQADm1hbnUyLDIuNSsxLjExLDIsMQIbAwUJBaWS9wULCQgHAgIiAgYVCgkI
CwIEFgIDAQIeBwIXgAAKCRAP1ZSZeJZGsw8wD/47cdR7sPTf/14jgPe3SXYz9HQv
ZdWlqFcYlkJ7kPBinoSEvAj/EUU2RP0IuoTMgsCRAe+RtZ5zxw/7HOqLZh+uegMy
3Z8d4o36ZLaTWiTjThvZ/lk2LZ3VDnwcVdjqBTWr6R7pnLRnjgKRWM0/7ReKFdkO
WY7C4i5LvN3fRYUNqctWUsDlT3z5y+nyzBhKeyxqqH08P2pQhuEsnNjab6LxXQt8
KJk5saXe2H1YUHVA3gcuknKDx4v+kTue00ATJqyYBt8cppMxqzzuYCtpYlUde0j6
FUvO6ArAp8cAVYhq3Oq3c6cltIh+3pLVhw8qxZEiR3or4OPzDuQlmqbigNfayYmi
u0axnP5FokZTgtZkEmBKjLJyrL2trJH5JVQXyHTPRPMtN8INurRYZyhS0mGXmDi3
7ZBFirBDhl32pivCG7tZor3UxFmzTTiw4k2lbaMcK3/diuYJ5AY0cZShat2Jvy/N
FT/+arIToFplcqXDe7+R/ZVqkbN9hRzlXcrObZH1lNB0isuxbkIfXRrW/k4k6qpa
nJmVVOwHuNbI3SSI4dNn59JmBa8odVurAjUVpZl9AoX4P9YD9DQ+s55Msdy8TMyx
KlQhXclyO2RgjzUThpQlxn6GuLc5vyLrOW09nGuFRX1TTVmOGv8O1rVtVhZVf1tW
cTob29RhLIGXJI77sLkCDQRppyNpARAAxaMcwRlIVXskuLm2SOjSQoU4bF0Q+2Hd
Fd1lTdjBhZyBRwXeQ8Fs1YruefLhkyF+hkQmtXhTlB4ajksdP5ef6qDoPsBhSGiH
jPHBOqEDgc9K9Xn8D9hEeEg3W642Zbug3B4Tx2VWaWJblJjj4vJPbNRjHUCMCN8Y
8kQfpcDLRR02WP28Nb0vCgPDs/XialVhRSa1nh6yXwfw0rHbzvDUyAgnEhiaEvBP
17gcKqxLLkRJnj7NyqTCAUDD/QbB1e7Qg8vapDYNOvIyXrwhJo8A541Kcjlj1bej
WpLXAIbfzCTuzHW64oqk5NEcZCSx34f8wszwU/0lVCYWH85YcsaziAb7jCBk1NkD
LvdBgdktYZecYup7T5fz4rontQpIRzJtOJ/l3GfKpKCPaU97uZya99JgtEvJWdDD
RfQMR5QuP5UmP0zdoQ1LFsDVDTgjcCtxSeF7xN1Wmhn36xT5TZIbMC2FdihiigvB
McT1jeojXUbbc21gR+/U2qIL0jY5JdBYj5V62hQn2A8VP/sc3VZkatUjIMfb6wXc
AcZCIWmUmPSHFRsPTQFoMyurNz4Lk3oatFAvosAhCnMrGhWvgDTarLmwDm9ee4j3
0ReXrVaGSFTcBz1eOggMRQ8DWF7kZV/yUph8OiZ67IBHyN+iMx7FqIJOehaZnM8/
huu+JxWfFqEAEQEAAYkCWAQYAQgAQhYhBPubEWvv3MjjPolgDw/VlJl4lkazBQJp
pyNpGxSAAAAAAAQADm1hbnUyLDIuNSsxLjExLDIsMQIbDAUJBaWS9wAKCRAP1ZSZ
eJZGs00lEACl0e2HAdjse33Z1XJAWcVjcRcPzmEMaY0f3a8bvGNNVCeY1s6q+1wx
GB57SHjEnsYUhzYq6f8OV3hXLHfeBAXYIKHN1odaqECoUlMypfQS//dKxDhzgsca
a9kzw/w7u18GUne6wwNcHjpY5EZH7ZVui9QD0Z2ONLaJEWEu+6kcNCGKIwgwYxe8
4E8WEsNlTN7NvrHMHSDvUbB4X9XuwbTcHVgoJY1OvAqUUQxhYLAZ2OsaISdzIVb/
zt5Bdx6dn5M5R8zRMJ9H2goU/qBpoS8Zh4fQ0oXNNs2bnxMP/g6Ykg2R1Wo+txRc
VHMC10+yS7DsbJ2FPhCohK3dbGxjt4dqOfL0ETWEQHzFksCtQutRZQ9K6Oe0w9cE
zOqcoVmczC/3NE1pDQMXMBSnXJGzi5GTlbLLyd7zPZ8O6Z1O39SkP0djgcTgOs0+
fVS3l5D4RNnZ58ABGRwiU06JrmLMHmSV7PK9C9kQLHeeOlDV3+25yWY0+holr5Cb
YqstDuiFPn6BJm0+5uXcHT3Fd4Osf1+1zLwHafaMJb8ZLK8kTjbi5Wd5DEMij+8C
sITD/yTzJpuP5Dumo0Xs3ULptFlHLRPSwOmtE5KlBn2vfgKKCHTRQfaTJCtkMMQX
MZ1EYUh1a1FFxCB8zbZVZFtpGdiNpHOSGWCplI2SwS418tPDxuRDMg==
=K3Qd
-----END PGP PUBLIC KEY BLOCK-----
